X: 1
T: Polska fr\aan Jeppo
O: Finland Swedish
F: http://rsc.anu.edu.au/~pdc/revontulet_dots/music/polska_fran_jeppo.html
R: polska
Z: 2018 John Chambers <jc:trillian.mit.edu>
M: 3/4
L: 1/16
K: D
A4 |:\
fafd fafd f2gf | efed cdcB A2d2 | BdBG BdBG B2cB | ABAG FGAB A2fg |
a2fa g2eg f2d2 | cdec d4 "^>".d2A2 :: BdBG BdBG B2cB | ABAG FGAB A2d2 |
BdBG BdBG B2cB | ABAG FGAB A2fg | a2fa g2eg f2d2 | cdec d4 "^>".d4 :|
|:\
d2dd F2GF E2FE | D2D2 DEFG A2FA | a2fa g2eg f2d2 | cdec [1,3 A4 A4 :|2,4 d4 d4  :|
